X: 359
T: Da canan
%%abc-version 2.0
%%abcx-abcm2ps-target-version 5.9.1 (29 Sep 2008)
%%abc-creator hum2abc beta
%%abcx-conversion-date 2013/10/02 07:52:30
%%abc-edited-by Helmut Schaffrath
%%humdrum-veritas 4184796979
%%humdrum-veritas-data 1382883265
%%continueall 1
%%barnumbers 0
L: 1/8
M: 2/4
K: C
e2e d [I:setbarnb 1]| 
c e d c | 
A B A E | 
G4 | 
c B A A/ G/ | 
E c A G | 
E G C E | 
D4 | 
G E G A | 
c2c E | 
d c A c | 
G A E D | 
E> G E3/ G/ | 
c2c2 | 
A c A G/ A/ | 
c4 |]  



